src/assets/selectIconsSpells/evoca_1.svg

<svg xmlns="http://www.w3.org/2000/svg" viewBox="0 0 512 512"><path d="M0 0h512v512H0z"/><path fill="#fff" d="M370.06 77.686c-10.644.085-21.42 1.936-31.816 5.86-14.63 5.53-17.103 17.274-12.506 23.895 14.11 29.535 18.452 62.364 3.78 90.1-17.168-25.923-43.89-42.415-73.518-42.415-29.626 0-56.347 16.496-73.516 42.42-14.672-27.734-10.335-60.56 3.772-90.09 4.606-6.62 2.138-18.37-12.5-23.894-41.58-15.69-89.25 1.756-110.16 32.82 30.66-8.7 66.99-27.915 103.05-7.155.675.39 1.342.735 1.997 1.045-13.33 33.103-15.584 70.885 5.423 102.39-3.543 7.674-6.336 15.914-8.263 24.588-26.844-17.095-39.352-48.493-41.52-81.71l-.17.01c-.018-8.626-13.526-18.352-30.46-12.02C52.03 159.1 27.61 203.606 32.32 240.76c17.003-26.187 38.658-65.485 77.91-74.688 4.368 35.197 20.396 69.337 53.086 87.086-.373 4.018-.572 8.1-.572 12.246 0 2.983.097 5.85.283 8.614-25.055-5.735-46.175-23.645-61.806-46.41-.038-.06-.084-.12-.124-.18-.353-.516-.72-1.02-1.067-1.54l-.08.05c-5.773-6.48-18.946-7.902-28.93 4.216-28.26 34.29-25.08 73.666-13.86 107.116 1.65-31.567 8.098-64.37 38.725-91.67 17.705 22.113 41.41 39.493 69.43 44.134 2.336 9.984 6.2 18.202 11.322 25.02-21.07 2.364-43.31-3.103-63.85-13.248l-.03.064c-7.296-3.463-17.49.828-19.402 16.125-5.475 43.83 14.19 87.256 39.99 101.73-13.334-23.954-23.805-58.905-13.8-98.31.023-.09.035-.177.057-.267 22.498 8.685 47.02 12.214 70.2 6.79 4.84 3.53 10.313 6.46 16.288 8.858-9.288 2.466-18.875 12.258-19.66 26.29-1.815 32.91 28.185 46.034 51.105 39.704-18.345-8.55-27.09-37.8-13.695-52.14-.348-3.926-1.426-6.985-3.006-9.262C231.57 343.6 243.418 344.8 256 344.8c13.92 0 26.943-1.463 38.55-4.556-1.927 2.343-3.25 5.674-3.646 10.106 13.395 14.34 4.652 43.59-13.693 52.14 22.92 6.33 52.92-6.795 51.104-39.705-.827-14.944-11.646-25.085-21.457-26.68 5.61-2.327 10.77-5.13 15.358-8.474 23.173 5.414 47.688 1.882 70.18-6.802.023.097.035.19.06.287 9.99 39.405-.466 74.34-13.8 98.31 25.8-14.46 45.465-57.885 39.99-101.73-1.912-15.3-12.11-19.59-19.405-16.123l-.04-.082c-20.533 10.14-42.762 15.61-63.825 13.252 5.114-6.814 8.976-15.025 11.31-25.002 28.02-4.637 51.726-22.026 69.43-44.14 30.627 27.3 37.074 60.104 38.725 91.656 11.22-33.45 14.4-72.81-13.86-107.115-9.984-12.11-23.157-10.683-28.93-4.2l-.08-.053c-.347.52-.713 1.025-1.066 1.54-.04.062-.086.12-.125.182-15.633 22.765-36.754 40.682-61.81 46.413.188-2.765.286-5.634.286-8.62 0-4.146-.2-8.233-.572-12.253 32.683-17.75 48.722-51.882 53.08-87.09 39.246 9.22 60.9 48.513 77.9 74.684 4.71-37.155-19.71-81.658-61.334-97.228-16.928-6.326-30.434 3.41-30.447 12.035l-.182-.01c-2.153 33.22-14.666 64.602-41.503 81.698-1.926-8.672-4.72-16.91-8.26-24.582 21.006-31.508 18.75-69.293 5.417-102.398.656-.31 1.324-.656 2-1.047 36.06-20.76 72.405-1.53 103.05 7.155-15.682-23.3-46.416-38.936-78.345-38.68zM210.58 244.42c19.455 0 35.22 15.766 35.22 35.22 0 19.44-15.765 35.22-35.22 35.22-19.44 0-35.22-15.764-35.22-35.22 0-19.44 15.765-35.22 35.22-35.22zm90.84 0c19.44 0 35.22 15.766 35.22 35.22 0 19.44-15.765 35.22-35.22 35.22-19.44 0-35.22-15.764-35.22-35.22 0-19.44 15.765-35.22 35.22-35.22zm-97.006 8.97c-9.72 0-17.61 7.89-17.61 17.61 0 9.72 7.89 17.61 17.61 17.61 9.72 0 17.61-7.89 17.61-17.61 0-9.72-7.89-17.61-17.61-17.61zm90.842 0c-9.72 0-17.61 7.89-17.61 17.61 0 9.72 7.89 17.61 17.61 17.61 9.72 0 17.61-7.89 17.61-17.61 0-9.72-7.89-17.61-17.61-17.61zm-69.182 35.43c-4.86 0-8.804 3.945-8.804 8.805 0 4.86 3.944 8.805 8.804 8.805s8.807-3.945 8.807-8.805c0-4.86-3.946-8.805-8.806-8.805zm90.84 0c-4.86 0-8.805 3.945-8.805 8.805 0 4.86 3.944 8.805 8.804 8.805s8.807-3.945 8.807-8.805c0-4.86-3.946-8.805-8.806-8.805z"/></svg>

<?xml version="1.0" encoding="UTF-8" standalone="no"?>
<!DOCTYPE svg PUBLIC "-//W3C//DTD SVG 1.1//EN" "http://www.w3.org/Graphics/SVG/1.1/DTD/svg11.dtd">
<svg width="100%" height="100%" viewBox="0 0 512 512" version="1.1" xmlns="http://www.w3.org/2000/svg" xmlns:xlink="http://www.w3.org/1999/xlink" xml:space="preserve" xmlns:serif="http://www.serif.com/" style="fill-rule:evenodd;clip-rule:evenodd;stroke-linejoin:round;stroke-miterlimit:2;">
    <rect x="0" y="0" width="512" height="512" style="fill-rule:nonzero;"/>
    <path d="M370.06,77.686C359.416,77.771 348.64,79.622 338.244,83.546C323.614,89.076 321.141,100.82 325.738,107.441C339.848,136.976 344.19,169.805 329.518,197.541C312.35,171.618 285.628,155.126 256,155.126C226.374,155.126 199.653,171.622 182.484,197.546C167.812,169.812 172.149,136.986 186.256,107.456C190.862,100.836 188.394,89.086 173.756,83.562C132.176,67.872 84.506,85.318 63.596,116.382C94.256,107.682 130.586,88.467 166.646,109.227C167.321,109.617 167.988,109.962 168.643,110.272C155.313,143.375 153.059,181.157 174.066,212.662C170.523,220.336 167.73,228.576 165.803,237.25C138.959,220.155 126.451,188.757 124.283,155.54L124.113,155.55C124.095,146.924 110.587,137.198 93.653,143.53C52.03,159.1 27.61,203.606 32.32,240.76C49.323,214.573 70.978,175.275 110.23,166.072C114.598,201.269 130.626,235.409 163.316,253.158C162.943,257.176 162.744,261.258 162.744,265.404C162.744,268.387 162.841,271.254 163.027,274.018C137.972,268.283 116.852,250.373 101.221,227.608C101.183,227.548 101.137,227.488 101.097,227.428C100.744,226.912 100.377,226.408 100.03,225.888L99.95,225.938C94.177,219.458 81.004,218.036 71.02,230.154C42.76,264.444 45.94,303.82 57.16,337.27C58.81,305.703 65.258,272.9 95.885,245.6C113.59,267.713 137.295,285.093 165.315,289.734C167.651,299.718 171.515,307.936 176.637,314.754C155.567,317.118 133.327,311.651 112.787,301.506L112.757,301.57C105.461,298.107 95.267,302.398 93.355,317.695C87.88,361.525 107.545,404.951 133.345,419.425C120.011,395.471 109.54,360.52 119.545,321.115C119.568,321.025 119.58,320.938 119.602,320.848C142.1,329.533 166.622,333.062 189.802,327.638C194.642,331.168 200.115,334.098 206.09,336.496C196.802,338.962 187.215,348.754 186.43,362.786C184.615,395.696 214.615,408.82 237.535,402.49C219.19,393.94 210.445,364.69 223.84,350.35C223.492,346.424 222.414,343.365 220.834,341.088C231.57,343.6 243.418,344.8 256,344.8C269.92,344.8 282.943,343.337 294.55,340.244C292.623,342.587 291.3,345.918 290.904,350.35C304.299,364.69 295.556,393.94 277.211,402.49C300.131,408.82 330.131,395.695 328.315,362.785C327.488,347.841 316.669,337.7 306.858,336.105C312.468,333.778 317.628,330.975 322.216,327.631C345.389,333.045 369.904,329.513 392.396,320.829C392.419,320.926 392.431,321.019 392.456,321.116C402.446,360.521 391.99,395.456 378.656,419.426C404.456,404.966 424.121,361.541 418.646,317.696C416.734,302.396 406.536,298.106 399.241,301.573L399.201,301.491C378.668,311.631 356.439,317.101 335.376,314.743C340.49,307.929 344.352,299.718 346.686,289.741C374.706,285.104 398.412,267.715 416.116,245.601C446.743,272.901 453.19,305.705 454.841,337.257C466.061,303.807 469.241,264.447 440.981,230.142C430.997,218.032 417.824,219.459 412.051,225.942L411.971,225.889C411.624,226.409 411.258,226.914 410.905,227.429C410.865,227.491 410.819,227.549 410.78,227.611C395.147,250.376 374.026,268.293 348.97,274.024C349.158,271.259 349.256,268.39 349.256,265.404C349.256,261.258 349.056,257.171 348.684,253.151C381.367,235.401 397.406,201.269 401.764,166.061C441.01,175.281 462.664,214.574 479.664,240.745C484.374,203.59 459.954,159.087 418.33,143.517C401.402,137.191 387.896,146.927 387.883,155.552L387.701,155.542C385.548,188.762 373.035,220.144 346.198,237.24C344.272,228.568 341.478,220.33 337.938,212.658C358.944,181.15 356.688,143.365 343.355,110.26C344.011,109.95 344.679,109.604 345.355,109.213C381.415,88.453 417.76,107.683 448.405,116.368C432.723,93.068 401.989,77.432 370.06,77.688L370.06,77.686ZM210.58,244.42C230.035,244.42 245.8,260.186 245.8,279.64C245.8,299.08 230.035,314.86 210.58,314.86C191.14,314.86 175.36,299.096 175.36,279.64C175.36,260.2 191.125,244.42 210.58,244.42ZM301.42,244.42C320.86,244.42 336.64,260.186 336.64,279.64C336.64,299.08 320.875,314.86 301.42,314.86C281.98,314.86 266.2,299.096 266.2,279.64C266.2,260.2 281.965,244.42 301.42,244.42ZM204.414,253.39C194.694,253.39 186.804,261.28 186.804,271C186.804,280.72 194.694,288.61 204.414,288.61C214.134,288.61 222.024,280.72 222.024,271C222.024,261.28 214.134,253.39 204.414,253.39ZM295.256,253.39C285.536,253.39 277.646,261.28 277.646,271C277.646,280.72 285.536,288.61 295.256,288.61C304.976,288.61 312.866,280.72 312.866,271C312.866,261.28 304.976,253.39 295.256,253.39ZM226.074,288.82C221.214,288.82 217.27,292.765 217.27,297.625C217.27,302.485 221.214,306.43 226.074,306.43C230.934,306.43 234.881,302.485 234.881,297.625C234.881,292.765 230.935,288.82 226.075,288.82L226.074,288.82ZM316.914,288.82C312.054,288.82 308.109,292.765 308.109,297.625C308.109,302.485 312.053,306.43 316.913,306.43C321.773,306.43 325.72,302.485 325.72,297.625C325.72,292.765 321.774,288.82 316.914,288.82Z" style="fill:rgb(70,162,88);fill-rule:nonzero;"/>
</svg>
